img/Facebook icon.svg

<svg width="41" height="40" viewBox="0 0 41 40" fill="none" xmlns="http://www.w3.org/2000/svg">
<g id="Facebook icon">
<path id="Vector" fill-rule="evenodd" clip-rule="evenodd" d="M0.00878906 20.1117C0.00878906 30.055 7.29114 38.3233 16.8155 40V25.555H11.7735V20H16.8155V15.555C16.8155 10.555 20.0643 7.77833 24.6592 7.77833C26.1147 7.77833 27.6844 8 29.1399 8.22167V13.3333H26.5634C24.0979 13.3333 23.5382 14.555 23.5382 16.1117V20H28.9164L28.0206 25.555H23.5382V40C33.0626 38.3233 40.3449 30.0567 40.3449 20.1117C40.3449 9.05 31.2693 0 20.1769 0C9.08442 0 0.00878906 9.05 0.00878906 20.1117Z" fill="white"/>
</g>
</svg>

<svg xmlns="http://www.w3.org/2000/svg" width="41" height="40" fill="none"><path fill="#fff" fill-rule="evenodd" d="M.009 20.112C.009 30.055 7.29 38.323 16.816 40V25.555h-5.042V20h5.042v-4.445c0-5 3.248-7.777 7.843-7.777 1.456 0 3.025.222 4.48.444v5.111h-2.576c-2.465 0-3.025 1.222-3.025 2.779V20h5.378l-.895 5.555h-4.483V40c9.525-1.677 16.807-9.943 16.807-19.888C40.345 9.05 31.269 0 20.177 0 9.084 0 .009 9.05.009 20.112" clip-rule="evenodd"/></svg>
